X: 13105
T: Firefly, The
R: jig
M: 6/8
K: Gmajor
Bdd cdd|Bdd AFD|GBd gdB|AFA cBA|
Bdd cdd|Bdd AFD|GBd gdB|cAF G2z:|
GBd gfg|ece dBG|cBA BAF|DFA cBA|
GBd gfg|ece dBG|cBA BAF|DFA G2z:|

